X:1
T:The Liberty Bell
C:John Philip Sousa
M:6/8
L:1/8
Q:3/8=116
K:G
D2 D | G2 B G2 d | g3 d3 | B2 G B2 D | G6 | d2 g d2 B | G2 B G2 E | D2 G B2 d | G6 |]
